svgs/light/display-code.svg

<svg xmlns="http://www.w3.org/2000/svg" viewBox="0 0 576 512"><!-- Font Awesome Pro 6.0.0-alpha2 by @fontawesome - https://fontawesome.com License - https://fontawesome.com/license (Commercial License) --><path d="M512 0H64C28.654 0 0 28.652 0 64V352C0 387.348 28.654 416 64 416H213.693L194.494 480H144C135.164 480 128 487.164 128 496S135.164 512 144 512H432C440.836 512 448 504.836 448 496S440.836 480 432 480H381.506L362.307 416H512C547.346 416 576 387.348 576 352V64C576 28.652 547.346 0 512 0ZM227.906 480L247.105 416H328.895L348.094 480H227.906ZM544 352C544 369.645 529.645 384 512 384H64C46.355 384 32 369.645 32 352V64C32 46.355 46.355 32 64 32H512C529.645 32 544 46.355 544 64V352ZM235.312 132.688C229.062 126.438 218.937 126.438 212.688 132.688L148.688 196.688C142.438 202.938 142.438 213.063 148.688 219.312L212.688 283.312C215.812 286.438 219.906 288 224 288S232.188 286.438 235.312 283.312C241.562 277.062 241.562 266.937 235.312 260.688L182.625 208L235.312 155.312C241.562 149.062 241.562 138.938 235.312 132.688ZM363.312 132.688C357.062 126.438 346.937 126.438 340.688 132.688S334.438 149.063 340.688 155.312L393.375 208L340.688 260.688C334.438 266.938 334.438 277.063 340.688 283.312C343.812 286.438 347.906 288 352 288S360.188 286.438 363.312 283.312L427.312 219.312C433.562 213.062 433.562 202.937 427.312 196.688L363.312 132.688Z"/></svg>

<svg xmlns="http://www.w3.org/2000/svg" viewBox="0 0 576 512"><!--! Font Awesome Pro 6.3.0 by @fontawesome - https://fontawesome.com License - https://fontawesome.com/license (Commercial License) Copyright 2023 Fonticons, Inc. --><path d="M512 0H64C28.65 0 0 28.65 0 64v288c0 35.35 28.65 64 64 64h149.7l-19.2 64H144C135.2 480 128 487.2 128 496S135.2 512 144 512h288c8.836 0 16-7.164 16-16S440.8 480 432 480h-50.49l-19.2-64H512c35.35 0 64-28.65 64-64V64C576 28.65 547.3 0 512 0zM227.9 480l19.2-64h81.79l19.2 64H227.9zM544 352c0 17.64-14.36 32-32 32H64c-17.64 0-32-14.36-32-32V64c0-17.64 14.36-32 32-32h448c17.64 0 32 14.36 32 32V352zM235.3 132.7c-6.25-6.25-16.38-6.25-22.62 0l-64 64c-6.25 6.25-6.25 16.38 0 22.62l64 64C215.8 286.4 219.9 288 224 288s8.188-1.562 11.31-4.688c6.25-6.25 6.25-16.38 0-22.62L182.6 208l52.69-52.69C241.6 149.1 241.6 138.9 235.3 132.7zM363.3 132.7c-6.25-6.25-16.38-6.25-22.62 0s-6.25 16.38 0 22.62L393.4 208l-52.69 52.69c-6.25 6.25-6.25 16.38 0 22.62C343.8 286.4 347.9 288 352 288s8.188-1.562 11.31-4.688l64-64c6.25-6.25 6.25-16.38 0-22.62L363.3 132.7z"/></svg>
